!!!OTL-incipit: ICH HATTE MEIN FEINSLIEBCHEN
!!!ARE: Europa, Mitteleuropa, Deutschland
!!!SCT: Z0301
!!!TXL: @@DE
!!!YEM: Copyright 1995, estate of Helmut Schaffrath.
**kern	**text
*ICvox	*
*M3/4	*
*k[f#]	*
*G:	*
!LO:TX:a:t=Deutſch.	!
{8d	Jch
=1	=1
8.g	hat-
16b	-te
4dd	mein
4b	Feins-
=2	=2
8ddqq	.
4cc	-lieb-
4.a}	-chen
{8g	ſo
=3	=3
8.f#	lan-
16a	-ge
4cc	nicht
4a	ge-
=4	=4
8ddL	-ſe-
8bJ	.
4.g}	-hen,
{8d	ſo
=5	=5
8.g	lan-
16g	-ge
4b	nicht
4dd	ge-
=6	=6
[2gg	-ſehn,
8gg]}	.
{8ee	ſo
=7	=7
8.dd	lan-
16cc	-ge
4b	nicht
4a	ge-
=8	=8
2g	-ſehn.
8r}	.
==	==
!!!AGN: Lyrisches Lied, Romanze, verlassene Liebe
!!!ONB: ESAC (Essen Associative Code) Database: ZUCCAL
!!!AMT: simple triple
!!!AIN: vox
!!!EED: Helmut Schaffrath
!!!EEV: 1.0
!!!GTL: IV. Lyrische Lieder.
!!!URL-scan: https://www.digitale-sammlungen.de/de/view/bsb11160571?page=542
!!!ENC: Anna Maria Matuszewska
!!!EEV: 2025/01/31
*-	*-
